.svelte-kit/output/client/library/social-YouTube.svg

<svg width="48" height="48" viewBox="0 0 48 48" fill="none" xmlns="http://www.w3.org/2000/svg">
<path d="M24 10C44.5 10 44 11 44 24.5C44 38 43.75 38.5 24 38.5C24 33.0342 24 28.6979 24 24.5247C24 19.9177 24 15.5095 24 10Z" fill="#F23620"/>
<path d="M24.0011 10C3.50107 10 4.00107 11 4.00107 24.5C4.00107 38 4.25107 38.5 24.0011 38.5C24.0011 33.0342 24.0011 28.6979 24.0011 24.5247C24.0011 19.9177 24.0011 15.5095 24.0011 10Z" fill="#F23620"/>
<path d="M29.5 23.134C30.1667 23.5189 30.1667 24.4811 29.5 24.866L22 29.1962C21.3333 29.5811 20.5 29.0999 20.5 28.3301L20.5 19.6699C20.5 18.9001 21.3333 18.4189 22 18.8038L29.5 23.134Z" fill="white"/>
</svg>

<svg width="48" height="48" fill="none" xmlns="http://www.w3.org/2000/svg"><path d="M24 10c20.5 0 20 1 20 14.5s-.25 14-20 14V10Z" fill="#F23620"/><path d="M24.001 10c-20.5 0-20 1-20 14.5s.25 14 20 14V10Z" fill="#F23620"/><path d="M29.5 23.134a1 1 0 0 1 0 1.732l-7.5 4.33a1 1 0 0 1-1.5-.866v-8.66a1 1 0 0 1 1.5-.866l7.5 4.33Z" fill="#fff"/></svg>
